X:81
T:Reel 81
M:4/4
K:Cmaj
L:1/8
GF|E>C (3CCC ECGF|E>C (3CB,C G2FE|Dd (3DDD _BDDA|F>D (3DDD F2GF|E>C (3CCC ECGF|E>C (3CCC G2FE|FAGF ECDB,|G,CCB, C2|ED|CccB cAGE|CccB cAGE|Ddd^c dAFE|Ddd^c dAFD|Ccc=B cBcB|GAGF ECCE|FGAB cAGF|ECDB, C2|
